X:1
T:We Gather Together
T:We Gather Together
%%score ( 1 2 ) ( 3 4 )
L:1/8
M:3/4
K:C
V:1 treble nm="Piano" snm="Pno."
V:2 treble 
V:3 bass nm="Piano" snm="Pno."
V:4 bass 
V:1
 [CG]2 | [CG]3 [CA] [CG]2 | [CE]2 [CF]2 [CG]2 | [CF]3 [CE] [B,D]2 | [CE]2 C2 | [EG]2 | %6
w: 1~We|ga- ther to-|ge- ther to|ask the Lord’s|bles- sing;|he|
w: 2~Be-|side us to|guide us, our|God with us|join- ing,|or-|
w: 3~We|all do ex-|tol thee, thou|lea- der tri-|um- phant,|and|
 [DG]3 [DA] [DB]2 | c3 d [DB]2 | [EA]3 [EG] [^FA]2 | [DG]4 | [DG]2 | [DG]3 [DA] [DB]2 | %12
w: chas- tens and|has- tens his|will to make|known;|the|wick- ed op-|
w: dain- ing, main-|tain- ing his|king- dom di-|vine;|so|from the be-|
w: pray that thou|still our de-|fen- der wilt|be;|let|thy con- gre-|
 [Cc]2 [CG]2 [CG]2 | (G3 A) [B,F][B,G] | [CE]2 C2 | C2 | [CF]3 [CG] [CA][CF] | (G3 F) [CE]-[CE] | %18
w: pres- sing now|cease _ from dis-|tres- sing,|sing|prai- ses to his|name: _ he for-|
w: gin- ning the|fight _ we were|win- ning;|thou,|Lord, wast at our|side, _ all _|
w: ga- tion es-|cape _ tri- bu-|la- tion;|thy|name be e- ver|praised! _ O _|
 [A,F]2 [B,D]3 C | C4 |] %20
w: gets not his|own.|
w: glo- ry be|thine!|
w: Lord, make us|free!|
V:2
 x2 | x6 | x6 | x6 | x2 C2 | x2 | x6 | E2 D2 x2 | x6 | x4 | x2 | x6 | x6 | C4 x2 | x2 C2 | C2 | %16
 x6 | D4 x2 | x4 x C | C4 |] %20
V:3
 [C,E,]2 | [C,E,]3 [C,F,] [C,E,]2 | [C,G,]2 [D,G,]2 [E,G,]2 | [D,A,]3 [D,A,] G,2 | %4
 [C,G,]2 [C,E,]2 | [C,G,]2 | [B,,G,]3 [B,,G,] [B,,G,]2 | [A,,G,]2 [D,^F,]2 G,2 | %8
 [C,G,]3 [A,,C] [D,C]2 | [G,,B,]4 | [G,B,]2 | [F,B,]3 [F,A,] G,2 | [E,G,]2 [E,G,]2 [E,G,]2 | %13
 [D,A,]4 G,G, | [C,G,]2 [C,E,]2 | [C,E,]2 | [A,,F,]3 [G,,E,] [F,,F,][A,,F,] | %17
 (D,2 G,2) [C,G,]-[C,G,] | [D,F,]2 [G,,F,]3 [C,E,] | [C,E,]4 |] %20
V:4
 x2 | x6 | x6 | x4 G,2 | x4 | x2 | x6 | x4 G,2 | x6 | x4 | x2 | x4 F,2 | x6 | x4 G,G, | x4 | x2 | %16
 x6 | B,,4 x2 | x6 | x4 |] %20

